svgs/solid/elevator.svg

<svg xmlns="http://www.w3.org/2000/svg" viewBox="0 0 512 512"><!--! Font Awesome Pro 6.0.0-alpha3 by @fontawesome - https://fontawesome.com License - https://fontawesome.com/license (Commercial License) --><path d="M79 96h130c5.967 0 11.37-3.402 13.75-8.662c2.385-5.262 1.299-11.39-2.754-15.59l-65-67.34c-5.684-5.881-16.31-5.881-21.99 0l-65 67.34C63.95 75.95 62.87 82.08 65.25 87.34C67.63 92.6 73.03 96 79 96zM357 91.59c5.686 5.881 16.31 5.881 21.99 0l65-67.34c4.053-4.199 5.137-10.32 2.754-15.59C444.4 3.402 438.1 0 433 0h-130c-5.967 0-11.37 3.402-13.75 8.662c-2.385 5.262-1.301 11.39 2.752 15.59L357 91.59zM448 128H64c-35.35 0-64 28.65-64 63.1v255.1C0 483.3 28.65 512 64 512h384c35.35 0 64-28.65 64-63.1V192C512 156.7 483.3 128 448 128zM352 224C378.5 224.1 400 245.5 400 272c0 26.46-21.47 47.9-48 48C325.5 319.9 304 298.5 304 272C304 245.5 325.5 224.1 352 224zM160 224C186.5 224.1 208 245.5 208 272c0 26.46-21.47 47.9-48 48C133.5 319.9 112 298.5 112 272C112 245.5 133.5 224.1 160 224zM240 448h-160v-48C80 373.5 101.5 352 128 352h64c26.51 0 48 21.49 48 48V448zM432 448h-160v-48c0-26.51 21.49-48 48-48h64c26.51 0 48 21.49 48 48V448z"/></svg>

<svg xmlns="http://www.w3.org/2000/svg" viewBox="0 0 512 512"><!-- Font Awesome Pro 6.0.0-alpha2 by @fontawesome - https://fontawesome.com License - https://fontawesome.com/license (Commercial License) --><path d="M79 96H209C214.967 96 220.367 92.598 222.75 87.338C225.135 82.076 224.049 75.951 219.996 71.752L154.996 4.41C149.312 -1.471 138.687 -1.471 133.004 4.41L68.004 71.752C63.951 75.951 62.867 82.076 65.248 87.338C67.633 92.598 73.033 96 79 96ZM357.012 91.59C362.697 97.471 373.32 97.471 379.004 91.59L444.006 24.248C448.059 20.049 449.143 13.924 446.76 8.662C444.375 3.402 438.977 0 433.008 0H303.008C297.041 0 291.641 3.402 289.26 8.662C286.875 13.924 287.959 20.049 292.012 24.248L357.012 91.59ZM448 128H64C28.654 128 0 156.652 0 192V448C0 483.346 28.654 512 64 512H448C483.346 512 512 483.346 512 448V192C512 156.652 483.346 128 448 128ZM352 224C378.525 224.1 400 245.543 400 272C400 298.455 378.525 319.9 352 320C325.475 319.9 304 298.455 304 272C304 245.543 325.475 224.1 352 224ZM160 224C186.525 224.1 208 245.543 208 272C208 298.455 186.525 319.9 160 320C133.475 319.9 112 298.455 112 272C112 245.543 133.475 224.1 160 224ZM240 448H80V400C80 373.49 101.49 352 128 352H192C218.51 352 240 373.49 240 400V448ZM432 448H272V400C272 373.49 293.49 352 320 352H384C410.51 352 432 373.49 432 400V448Z"/></svg>
